packages/core/src/svgs/tokens/mono/NYM.svg

<svg width="24" height="24" viewBox="0 0 24 24" fill="none" xmlns="http://www.w3.org/2000/svg">
<path fill-rule="evenodd" clip-rule="evenodd" d="M22 12C22 9.34785 20.9464 6.80429 19.071 4.92892C17.1957 3.05357 14.6522 2 12 2C9.34785 2 6.80429 3.05357 4.92892 4.92892C3.05357 6.80429 2 9.34785 2 12C2 14.6522 3.05357 17.1957 4.92892 19.071C6.80429 20.9464 9.34785 22 12 22C14.6522 22 17.1957 20.9464 19.071 19.071C20.9464 17.1957 22 14.6522 22 12ZM20.8235 12C20.8235 9.65983 19.8938 7.41554 18.2392 5.76081C16.5845 4.10608 14.3401 3.17647 12 3.17647C9.65983 3.17647 7.41554 4.10608 5.76081 5.76081C4.10608 7.41554 3.17647 9.65983 3.17647 12C3.17647 14.3401 4.10608 16.5845 5.76081 18.2392C7.41554 19.8938 9.65983 20.8235 12 20.8235C14.3401 20.8235 16.5845 19.8938 18.2392 18.2392C19.8938 16.5845 20.8235 14.3401 20.8235 12Z" fill="white"/>
<path d="M6.70557 17.8765V6.13528C7.22321 5.6647 7.84674 5.25294 8.47027 4.94116L15.5291 15.9412V4.94116C16.1467 5.2647 16.7938 5.70588 17.2938 6.18234V17.8824C16.7588 18.3489 16.1655 18.7443 15.5291 19.0588L8.47027 8.02352V19.0588C7.83917 18.7328 7.24715 18.3361 6.70557 17.8765Z" fill="white"/>
</svg>

<svg xmlns="http://www.w3.org/2000/svg" width="24" height="24" fill="none" viewBox="0 0 24 24">
    <path fill="#fff" fill-rule="evenodd" d="M22 12a10 10 0 1 0-20 0 10 10 0 0 0 20 0m-1.177 0a8.824 8.824 0 1 0-17.648 0 8.824 8.824 0 0 0 17.649 0" clip-rule="evenodd"/>
    <path fill="#fff" d="M6.706 17.877V6.134A8 8 0 0 1 8.47 4.941l7.06 11v-11a8 8 0 0 1 1.764 1.241v11.7a8.2 8.2 0 0 1-1.765 1.177L8.47 8.024v11.035a9.4 9.4 0 0 1-1.764-1.183"/>
</svg>
